**kern	**kern	**dynam
*part1	*part1	*part1
*staff2	*staff1	*
*I"Piano	*	*
*clefF4	*clefG2	*
*k[f#c#g#d#]	*k[f#c#g#d#]	*
=1	=1	=1
(4.EE 4.E	8g#L	.
.	8B	.
.	8eJ	.
4.FF# 4.F#	8aL	.
.	8B	.
.	8eJ	.
=	=	=
4.FF##X 4.F##X	8a#XL	.
.	8B	.
.	8eJ	.
4.GG#) 4.G#	8bL	.
.	8B	.
.	8eJ	.
=	=	=
*	*^	*
4.FF#X 4.F#X	8bL	4.ryy	.
.	8d#	.	.
.	8f#J	.	.
4.AA#X 4.F# 4.A#X	(4ff#^	8ff#L	.
.	.	8f#	.
.	8ee)	8cc#J	.
=	=	=	=
(4.BB [4.F# 4.B	(4ee	8eeL	.
.	.	8f#	.
.	8dd#)	8bJ	.
4.C#) 4.F#] 4.c#	(4dd#	8dd#L	.
.	.	8e	.
.	8cc#)	8a#XJ	.
=	=	=	=
4.D# 4.F#	4b	8bL	.
.	.	8f#	.
.	2ryy	8d#J	.
4rGG	.	8BL	.
.	.	8F#<	.
8rGG	.	8D#J<	.
*	*v	*v	*
=	=	=
!	!	!LO:DY:a
[4.BB	(8DnL<	p
.	8F#<	.
.	8BJ<	.
4.BB] 4.E	8GnL<	.
.	8B<	.
.	8eJ	<
=	=	=
*	*^	*
4.BB 4.B	8dnL	4.rffyy	.
.	8f#	.	.
.	8bJ)	.	.
4.AA [4.A	(4ff#^	8ff#L	[ f
.	.	8gn	.
.	8ee)	8cc#J	.
*	*v	*v	*
=	=	=
*-	*-	*-
!!!system-decoration: {(s1,s2)}
!!!RDF**kern: < = below
